app/img/step-4/var-2.svg

<svg width="90" height="90" viewBox="0 0 90 90" fill="none" xmlns="http://www.w3.org/2000/svg">
<path d="M44.9998 90C69.8446 90 89.9854 69.8528 89.9854 45C89.9854 20.1472 69.8446 0 44.9998 0C20.1549 0 0.0141602 20.1472 0.0141602 45C0.0141602 69.8528 20.1549 90 44.9998 90Z" fill="#FF6B6B"/>
<path d="M45.0449 0V89.9989C69.8688 89.9743 89.9852 69.8371 89.9852 44.9995C89.9852 20.1619 69.8688 0.0245953 45.0449 0Z" fill="#FF1F3D"/>
<path d="M65.4124 32.1275L57.733 24.4481C57.3557 24.0708 56.7438 24.0708 56.3664 24.4481L45.6196 35.1949C45.2423 35.5722 44.6304 35.5722 44.253 35.1949L33.5063 24.4481C33.1289 24.0708 32.517 24.0708 32.1396 24.4481L24.4603 32.1275C24.0829 32.5049 24.0829 33.1168 24.4603 33.4941L35.207 44.2409C35.5844 44.6182 35.5844 45.2301 35.207 45.6075L24.4603 56.3543C24.0829 56.7316 24.0829 57.3435 24.4603 57.7209L32.1396 65.4003C32.517 65.7776 33.1289 65.7776 33.5063 65.4003L44.253 54.6535C44.6304 54.2761 45.2423 54.2761 45.6196 54.6535L56.3664 65.4003C56.7438 65.7776 57.3557 65.7776 57.733 65.4003L65.4124 57.7209C65.7897 57.3435 65.7897 56.7316 65.4124 56.3543L54.6656 45.6075C54.2883 45.2301 54.2883 44.6182 54.6656 44.2409L65.4124 33.4941C65.7897 33.1168 65.7897 32.505 65.4124 32.1275Z" fill="#FFF5F5"/>
<path d="M65.4128 33.4943C65.7901 33.1169 65.7901 32.505 65.4128 32.1277L57.7334 24.4483C57.356 24.0709 56.7441 24.0709 56.3668 24.4483L45.62 35.1951C45.4429 35.3722 45.2138 35.463 44.9819 35.4737V54.375C45.2138 54.3859 45.4429 54.4766 45.62 54.6537L56.3668 65.4004C56.7441 65.7778 57.356 65.7778 57.7334 65.4004L65.4128 57.7211C65.7901 57.3437 65.7901 56.7318 65.4128 56.3544L54.666 45.6077C54.2886 45.2303 54.2886 44.6184 54.666 44.2411L65.4128 33.4943Z" fill="#DFEBF1"/>
</svg>

<svg width="90" height="90" fill="none" xmlns="http://www.w3.org/2000/svg"><path d="M45 90c24.845 0 44.985-20.147 44.985-45S69.845 0 45 0 .014 20.147.014 45 20.154 90 45 90z" fill="#FF6B6B"/><path d="M45.045 0v89.999c24.824-.025 44.94-20.162 44.94-45C89.985 20.162 69.87.026 45.045 0z" fill="#FF1F3D"/><path d="M65.412 32.127l-7.679-7.679a.966.966 0 00-1.367 0L45.62 35.195a.966.966 0 01-1.367 0L33.506 24.448a.967.967 0 00-1.366 0l-7.68 7.68a.966.966 0 000 1.366l10.747 10.747a.966.966 0 010 1.367L24.46 56.354a.966.966 0 000 1.367l7.68 7.68a.967.967 0 001.366 0l10.747-10.747a.966.966 0 011.367 0L56.366 65.4a.966.966 0 001.367 0l7.68-7.68a.966.966 0 000-1.366L54.665 45.608a.966.966 0 010-1.367l10.746-10.747a.966.966 0 000-1.367z" fill="#FFF5F5"/><path d="M65.413 33.494a.966.966 0 000-1.366l-7.68-7.68a.966.966 0 00-1.366 0L45.62 35.195a.959.959 0 01-.638.279v18.901a.96.96 0 01.638.279L56.367 65.4a.966.966 0 001.366 0l7.68-7.679a.967.967 0 000-1.367L54.666 45.608a.966.966 0 010-1.367l10.747-10.747z" fill="#DFEBF1"/></svg>
